images/xaurum_logo.svg

<svg height="250" viewBox="0 0 250 250" width="250" xmlns="http://www.w3.org/2000/svg"><g fill="#876c3c"><path d="m59 194.5h-2.5l-9.5 12.25-9.5-12.25h-2.5l10.75 13.75-11.25 14.25h2.5l10-12.75 10 12.75h2.5l-11.25-14.25zm0 0"/><path d="m76.25 194.25-13 28.25h2.25l3.5-7.75h16.5l3.5 7.75h2.25l-13-28.25zm-6.5 18.5 7.5-16.25 7.5 16.25zm0 0"/><path d="m117.75 211c0 1.75-.25 3.25-.75 4.5s-1 2.25-2 3.25c-.75.75-1.75 1.5-3 2s-2.5.75-3.75.75c-3 0-5.25-1-7-2.75s-2.5-4.5-2.5-7.75v-16.25h-2v16.5c0 2 .25 3.75.75 5.25s1.25 2.75 2.5 3.75c1 1 2.25 1.75 3.75 2.25s3 .75 4.75.75 3.25-.25 4.75-.75 2.5-1.25 3.75-2.25c1-1 1.75-2.25 2.25-3.75s.75-3.25.75-5.25v-16.25h-2v16zm0 0"/><path d="m144.75 209.75c1-.5 1.75-1 2.5-1.5.75-.75 1.25-1.5 1.75-2.5s.5-2 .5-3.25c0-1-.25-2-.5-2.75-.25-1-1-1.75-1.5-2.25-.75-.75-2-1.5-3.25-2s-3-.75-4.5-.75h-11.75v27.75h2v-11.75h9l9 11.75h2.75l-9.25-12c1 0 2.25-.25 3.25-.75zm-14.75-.75v-12.75h9.5c2.5 0 4.5.5 6 1.75 1.5 1 2 2.5 2 4.5 0 1-.25 2-.5 2.75-.5.75-1 1.5-1.75 2s-1.5 1-2.5 1.25-2 .5-3.25.5zm0 0"/><path d="m177.25 211c0 1.75-.25 3.25-.75 4.5s-1 2.25-2 3.25c-.75.75-1.75 1.5-3 2s-2.5.75-3.75.75c-3 0-5.25-1-7-2.75s-2.5-4.5-2.5-7.75v-16.25h-2v16.5c0 2 .25 3.75.75 5.25s1.25 2.75 2.5 3.75c1 1 2.25 1.75 3.75 2.25s3 .75 4.75.75 3.25-.25 4.75-.75 2.5-1.25 3.75-2.25c1-1 1.75-2.25 2.25-3.75s.75-3.25.75-5.25v-16.25h-2v16zm0 0"/><path d="m200.5 211-11.25-16.5h-2v28h2v-24.25l11.25 16 11.25-16v24.25h2v-28h-2zm0 0"/><path d="m171 93.25v-9.75h18v-10.75h12.75v-40.5h13.5v-5.25h-54.5v5.25h23.25v32.75h-12.75v9.75h-18v5h-18.5c.25-.25.25-.5.5-1 1.5-3 3.75-4.25 5.25-4.5-.75.5-1 1.25-1 2 0 1.5 1.25 2.75 3 2.75 1 0 2-.5 2.5-1.25.75-1 1-2 .5-3-.75-1.5-2.75-2.5-4.75-2.5s-5.25 1.5-7.5 5.75c-.25.75-.75 1.25-1 2l-7-18-7 17.75c-.25-.5-.5-1-.75-1.5-2.25-4.25-5.5-5.75-7.5-5.75s-4 1-4.75 2.5c-.5 1-.25 2 .5 3 .5.75 1.5 1.25 2.5 1.25 1.75 0 3-1.25 3-2.75 0-.75-.5-1.5-1-2 1.5.25 3.75 1.5 5.25 4.5.25.25.25.5.5 1h-18.75v-5h-18v-9.75h-12.75v-33h23.25v-5.25h-54.75v5.25h13.5v40.75h12.75v10.75h18v9.75h17.25v4.5l-13 5 13 5v3.75h-17.25v9.75h-18v10.75h-12.75v40.75h-13.5v5.25h54.75v-5.25h-23.25v-33.25h12.75v-9.75h18v-4.75h18.75c-.25.25-.25.75-.5 1-1.5 3-3.75 4.25-5.25 4.5.75-.5 1-1.25 1-2 0-1.5-1.25-2.75-3-2.75-1 0-2 .5-2.5 1.25-.75 1-1 2-.5 3 .75 1.5 2.75 2.5 4.75 2.5s5.25-1.5 7.5-5.75c.25-.25.25-.75.5-1l7.25 18.5 7.25-18.75c.25.5.5 1 .75 1.25 2.25 4.25 5.5 5.75 7.5 5.75s4-1 4.75-2.5c.5-1 .25-2-.5-3-.5-.75-1.5-1.25-2.5-1.25-1.75 0-3 1.25-3 2.75 0 .75.5 1.5 1 2-1.5-.25-3.75-1.5-5.25-4.5-.25-.25-.25-.75-.5-1h18.5v4.75h18v9.75h12.75v32.75h-23.25v5.25h54.75v-5.25h-13.5v-40.5h-12.75v-10.75h-18v-9.75h-17.5v-3.75l13.25-5.25-13.25-5.25v-4.25h17.25zm-20.5 9.75c-.5 0-.75.25-1.25.5 0 0-.25 0-.25.25 0 0-.25.25-.5.25s-.25.25-.25.25h-.25s-.25 0-.25.25c-.25 0-.25.25-.25.25s0 0-.25 0c0 0-.25-.25-.25-.25s-.25-.25-.25-.25-.25 0-.25-.25c-.25-.25-.75-.5-1-.75-.5-.25-.75-.25-1.25-.25h-4.75c.25 0 .5.25.75.25s.5 0 .75.25l3 1.5c1 .5 1.75 1.25 2.5 2.25l-.25.25-2.75 2.25h-.25c-.25-.75-.5-1.5-1-2.25s-1-1.25-1.75-1.75-1.25-1-2-1.5c-.25-.25-.75-.5-1-.5l-4.75 3.75 2.5 5.5-5.5-2.5-4.75 4.75-4.75-4.75-5.5 2.5 2.5-5.5-3.5-3.5c-.5.25-1.25.5-1.75 1-.75.5-1.25 1-1.75 1.5s-1 1-1.5 1.75-.75 1.25-1 2l-3-2.5-.25-.25c.75-1 1.5-1.75 2.5-2.25l3-1.5c.25 0 .5 0 .75-.25.25 0 .5-.25.75-.25h-4.5c-.25 0-.5 0-1 .25-.25 0-.75.25-1 .5s-.5.25-1 .5c-.25.25-.5.5-.75.5 0 0-.25 0-.5-.25s-.25-.25-.5-.25c-.5-.25-1-.5-1.25-.75-.5-.25-1-.25-1.5-.5-.25 0-.25 0-.5 0s-.25 0-.5 0c.5-.25.75-.25 1.25-.25s.75-.25 1.25-.5c0 0 .25 0 .25-.25 0 0 .25-.25.5-.25s.25-.25.25-.25h.25s.25 0 .25-.25c.25 0 .25-.25.25-.25h.25s.25.25.25.25.25.25.25.25.25 0 .25.25c.25.25.75.5 1 .75.5.25.75.25 1.25.25h4.75c-.25 0-.5-.25-.75-.25s-.5 0-.75-.25c-1-.5-2-1-3-1.5s-1.75-1.25-2.5-2.25l.25-.25 2.75-2.25h.25c.25.75.5 1.5 1 2.25s1 1.25 1.75 1.75 1.25 1 2 1.5c.25.25.5.25 1 .5l4-4-2.5-5.5 5.5 2.5 4.5-4.5 4.75 4.75 5.5-2.25-2.25 5.5 3.75 3.75c.75-.25 1.5-.75 2-1 .75-.5 1.25-1 1.75-1.5s1-1 1.5-1.75.75-1.25 1-2l3 2.5.25.25c-.75 1-1.5 1.75-2.5 2.25s-2 1-3 1.5c-.25 0-.5 0-.75.25-.25 0-.5.25-.75.25h4.5c.25 0 .5 0 1-.25.25 0 .75-.25 1-.5s.5-.25 1-.5c.25-.25.5-.5.75-.5 0 0 .25 0 .5.25s.25.25.5.25c.5.25 1 .5 1.25.75.5.25 1 .25 1.5.5h.5.5c-.25-.5-.75-.5-1-.25zm0 0"/></g></svg>

<!-- Generator: Adobe Illustrator 19.2.1, SVG Export Plug-In . SVG Version: 6.00 Build 0)  -->
<svg xmlns="http://www.w3.org/2000/svg" xmlns:xlink="http://www.w3.org/1999/xlink" width="250px" height="250px" viewBox="0 0 250 250" version="1.1">
<g id="surface1">
<path style=" stroke:none;fill-rule:nonzero;fill:rgb(52.941179%,42.352942%,23.529412%);fill-opacity:1;" d="M 59 194.5 L 56.5 194.5 L 47 206.75 L 37.5 194.5 L 35 194.5 L 45.75 208.25 L 34.5 222.5 L 37 222.5 L 47 209.75 L 57 222.5 L 59.5 222.5 L 48.25 208.25 Z M 59 194.5 "/>
<path style=" stroke:none;fill-rule:nonzero;fill:rgb(52.941179%,42.352942%,23.529412%);fill-opacity:1;" d="M 76.25 194.25 L 63.25 222.5 L 65.5 222.5 L 69 214.75 L 85.5 214.75 L 89 222.5 L 91.25 222.5 L 78.25 194.25 Z M 69.75 212.75 L 77.25 196.5 L 84.75 212.75 Z M 69.75 212.75 "/>
<path style=" stroke:none;fill-rule:nonzero;fill:rgb(52.941179%,42.352942%,23.529412%);fill-opacity:1;" d="M 117.75 211 C 117.75 212.75 117.5 214.25 117 215.5 C 116.5 216.75 116 217.75 115 218.75 C 114.25 219.5 113.25 220.25 112 220.75 C 110.75 221.25 109.5 221.5 108.25 221.5 C 105.25 221.5 103 220.5 101.25 218.75 C 99.5 217 98.75 214.25 98.75 211 L 98.75 194.75 L 96.75 194.75 L 96.75 211.25 C 96.75 213.25 97 215 97.5 216.5 C 98 218 98.75 219.25 100 220.25 C 101 221.25 102.25 222 103.75 222.5 C 105.25 223 106.75 223.25 108.5 223.25 C 110.25 223.25 111.75 223 113.25 222.5 C 114.75 222 115.75 221.25 117 220.25 C 118 219.25 118.75 218 119.25 216.5 C 119.75 215 120 213.25 120 211.25 L 120 195 L 118 195 L 118 211 Z M 117.75 211 "/>
<path style=" stroke:none;fill-rule:nonzero;fill:rgb(52.941179%,42.352942%,23.529412%);fill-opacity:1;" d="M 144.75 209.75 C 145.75 209.25 146.5 208.75 147.25 208.25 C 148 207.5 148.5 206.75 149 205.75 C 149.5 204.75 149.5 203.75 149.5 202.5 C 149.5 201.5 149.25 200.5 149 199.75 C 148.75 198.75 148 198 147.5 197.5 C 146.75 196.75 145.5 196 144.25 195.5 C 143 195 141.25 194.75 139.75 194.75 L 128 194.75 L 128 222.5 L 130 222.5 L 130 210.75 L 139 210.75 L 148 222.5 L 150.75 222.5 L 141.5 210.5 C 142.5 210.5 143.75 210.25 144.75 209.75 Z M 130 209 L 130 196.25 L 139.5 196.25 C 142 196.25 144 196.75 145.5 198 C 147 199 147.5 200.5 147.5 202.5 C 147.5 203.5 147.25 204.5 147 205.25 C 146.5 206 146 206.75 145.25 207.25 C 144.5 207.75 143.75 208.25 142.75 208.5 C 141.75 208.75 140.75 209 139.5 209 Z M 130 209 "/>
<path style=" stroke:none;fill-rule:nonzero;fill:rgb(52.941179%,42.352942%,23.529412%);fill-opacity:1;" d="M 177.25 211 C 177.25 212.75 177 214.25 176.5 215.5 C 176 216.75 175.5 217.75 174.5 218.75 C 173.75 219.5 172.75 220.25 171.5 220.75 C 170.25 221.25 169 221.5 167.75 221.5 C 164.75 221.5 162.5 220.5 160.75 218.75 C 159 217 158.25 214.25 158.25 211 L 158.25 194.75 L 156.25 194.75 L 156.25 211.25 C 156.25 213.25 156.5 215 157 216.5 C 157.5 218 158.25 219.25 159.5 220.25 C 160.5 221.25 161.75 222 163.25 222.5 C 164.75 223 166.25 223.25 168 223.25 C 169.75 223.25 171.25 223 172.75 222.5 C 174.25 222 175.25 221.25 176.5 220.25 C 177.5 219.25 178.25 218 178.75 216.5 C 179.25 215 179.5 213.25 179.5 211.25 L 179.5 195 L 177.5 195 L 177.5 211 Z M 177.25 211 "/>
<path style=" stroke:none;fill-rule:nonzero;fill:rgb(52.941179%,42.352942%,23.529412%);fill-opacity:1;" d="M 200.5 211 L 189.25 194.5 L 187.25 194.5 L 187.25 222.5 L 189.25 222.5 L 189.25 198.25 L 200.5 214.25 L 211.75 198.25 L 211.75 222.5 L 213.75 222.5 L 213.75 194.5 L 211.75 194.5 Z M 200.5 211 "/>
<path style=" stroke:none;fill-rule:nonzero;fill:rgb(52.941179%,42.352942%,23.529412%);fill-opacity:1;" d="M 171 93.25 L 171 83.5 L 189 83.5 L 189 72.75 L 201.75 72.75 L 201.75 32.25 L 215.25 32.25 L 215.25 27 L 160.75 27 L 160.75 32.25 L 184 32.25 L 184 65 L 171.25 65 L 171.25 74.75 L 153.25 74.75 L 153.25 79.75 L 134.75 79.75 C 135 79.5 135 79.25 135.25 78.75 C 136.75 75.75 139 74.5 140.5 74.25 C 139.75 74.75 139.5 75.5 139.5 76.25 C 139.5 77.75 140.75 79 142.5 79 C 143.5 79 144.5 78.5 145 77.75 C 145.75 76.75 146 75.75 145.5 74.75 C 144.75 73.25 142.75 72.25 140.75 72.25 C 138.75 72.25 135.5 73.75 133.25 78 C 133 78.75 132.5 79.25 132.25 80 L 125.25 62 L 118.25 79.75 C 118 79.25 117.75 78.75 117.5 78.25 C 115.25 74 112 72.5 110 72.5 C 108 72.5 106 73.5 105.25 75 C 104.75 76 105 77 105.75 78 C 106.25 78.75 107.25 79.25 108.25 79.25 C 110 79.25 111.25 78 111.25 76.5 C 111.25 75.75 110.75 75 110.25 74.5 C 111.75 74.75 114 76 115.5 79 C 115.75 79.25 115.75 79.5 116 80 L 97.25 80 L 97.25 75 L 79.25 75 L 79.25 65.25 L 66.5 65.25 L 66.5 32.25 L 89.75 32.25 L 89.75 27 L 35 27 L 35 32.25 L 48.5 32.25 L 48.5 73 L 61.25 73 L 61.25 83.75 L 79.25 83.75 L 79.25 93.5 L 96.5 93.5 L 96.5 98 L 83.5 103 L 96.5 108 L 96.5 111.75 L 79.25 111.75 L 79.25 121.5 L 61.25 121.5 L 61.25 132.25 L 48.5 132.25 L 48.5 173 L 35 173 L 35 178.25 L 89.75 178.25 L 89.75 173 L 66.5 173 L 66.5 139.75 L 79.25 139.75 L 79.25 130 L 97.25 130 L 97.25 125.25 L 116 125.25 C 115.75 125.5 115.75 126 115.5 126.25 C 114 129.25 111.75 130.5 110.25 130.75 C 111 130.25 111.25 129.5 111.25 128.75 C 111.25 127.25 110 126 108.25 126 C 107.25 126 106.25 126.5 105.75 127.25 C 105 128.25 104.75 129.25 105.25 130.25 C 106 131.75 108 132.75 110 132.75 C 112 132.75 115.25 131.25 117.5 127 C 117.75 126.75 117.75 126.25 118 126 L 125.25 144.5 L 132.5 125.75 C 132.75 126.25 133 126.75 133.25 127 C 135.5 131.25 138.75 132.75 140.75 132.75 C 142.75 132.75 144.75 131.75 145.5 130.25 C 146 129.25 145.75 128.25 145 127.25 C 144.5 126.5 143.5 126 142.5 126 C 140.75 126 139.5 127.25 139.5 128.75 C 139.5 129.5 140 130.25 140.5 130.75 C 139 130.5 136.75 129.25 135.25 126.25 C 135 126 135 125.5 134.75 125.25 L 153.25 125.25 L 153.25 130 L 171.25 130 L 171.25 139.75 L 184 139.75 L 184 172.5 L 160.75 172.5 L 160.75 177.75 L 215.5 177.75 L 215.5 172.5 L 202 172.5 L 202 132 L 189.25 132 L 189.25 121.25 L 171.25 121.25 L 171.25 111.5 L 153.75 111.5 L 153.75 107.75 L 167 102.5 L 153.75 97.25 L 153.75 93 L 171 93 Z M 150.5 103 C 150 103 149.75 103.25 149.25 103.5 C 149.25 103.5 149 103.5 149 103.75 C 149 103.75 148.75 104 148.5 104 C 148.25 104 148.25 104.25 148.25 104.25 C 148.25 104.25 148 104.25 148 104.25 C 148 104.25 147.75 104.25 147.75 104.5 C 147.5 104.5 147.5 104.75 147.5 104.75 C 147.5 104.75 147.5 104.75 147.25 104.75 C 147.25 104.75 147 104.5 147 104.5 C 147 104.5 146.75 104.25 146.75 104.25 C 146.75 104.25 146.5 104.25 146.5 104 C 146.25 103.75 145.75 103.5 145.5 103.25 C 145 103 144.75 103 144.25 103 L 139.5 103 C 139.75 103 140 103.25 140.25 103.25 C 140.5 103.25 140.75 103.25 141 103.5 C 142 104 143 104.5 144 105 C 145 105.5 145.75 106.25 146.5 107.25 L 146.25 107.5 L 143.5 109.75 L 143.25 109.75 C 143 109 142.75 108.25 142.25 107.5 C 141.75 106.75 141.25 106.25 140.5 105.75 C 139.75 105.25 139.25 104.75 138.5 104.25 C 138.25 104 137.75 103.75 137.5 103.75 L 132.75 107.5 L 135.25 113 L 129.75 110.5 L 125 115.25 L 120.25 110.5 L 114.75 113 L 117.25 107.5 L 113.75 104 C 113.25 104.25 112.5 104.5 112 105 C 111.25 105.5 110.75 106 110.25 106.5 C 109.75 107 109.25 107.5 108.75 108.25 C 108.25 109 108 109.5 107.75 110.25 L 104.75 107.75 L 104.5 107.5 C 105.25 106.5 106 105.75 107 105.25 C 108 104.75 109 104.25 110 103.75 C 110.25 103.75 110.5 103.75 110.75 103.5 C 111 103.5 111.25 103.25 111.5 103.25 L 107 103.25 C 106.75 103.25 106.5 103.25 106 103.5 C 105.75 103.5 105.25 103.75 105 104 C 104.75 104.25 104.5 104.25 104 104.5 C 103.75 104.75 103.5 105 103.25 105 C 103.25 105 103 105 102.75 104.75 C 102.5 104.5 102.5 104.5 102.25 104.5 C 101.75 104.25 101.25 104 101 103.75 C 100.5 103.5 100 103.5 99.5 103.25 C 99.25 103.25 99.25 103.25 99 103.25 C 98.75 103.25 98.75 103.25 98.5 103.25 C 99 103 99.25 103 99.75 103 C 100.25 103 100.5 102.75 101 102.5 C 101 102.5 101.25 102.5 101.25 102.25 C 101.25 102.25 101.5 102 101.75 102 C 102 102 102 101.75 102 101.75 C 102 101.75 102.25 101.75 102.25 101.75 C 102.25 101.75 102.5 101.75 102.5 101.5 C 102.75 101.5 102.75 101.25 102.75 101.25 C 102.75 101.25 102.75 101.25 103 101.25 C 103 101.25 103.25 101.5 103.25 101.5 C 103.25 101.5 103.5 101.75 103.5 101.75 C 103.5 101.75 103.75 101.75 103.75 102 C 104 102.25 104.5 102.5 104.75 102.75 C 105.25 103 105.5 103 106 103 L 110.75 103 C 110.5 103 110.25 102.75 110 102.75 C 109.75 102.75 109.5 102.75 109.25 102.5 C 108.25 102 107.25 101.5 106.25 101 C 105.25 100.5 104.5 99.75 103.75 98.75 L 104 98.5 L 106.75 96.25 L 107 96.25 C 107.25 97 107.5 97.75 108 98.5 C 108.5 99.25 109 99.75 109.75 100.25 C 110.5 100.75 111 101.25 111.75 101.75 C 112 102 112.25 102 112.75 102.25 L 116.75 98.25 L 114.25 92.75 L 119.75 95.25 L 124.25 90.75 L 129 95.5 L 134.5 93.25 L 132.25 98.75 L 136 102.5 C 136.75 102.25 137.5 101.75 138 101.5 C 138.75 101 139.25 100.5 139.75 100 C 140.25 99.5 140.75 99 141.25 98.25 C 141.75 97.5 142 97 142.25 96.25 L 145.25 98.75 L 145.5 99 C 144.75 100 144 100.75 143 101.25 C 142 101.75 141 102.25 140 102.75 C 139.75 102.75 139.5 102.75 139.25 103 C 139 103 138.75 103.25 138.5 103.25 L 143 103.25 C 143.25 103.25 143.5 103.25 144 103 C 144.25 103 144.75 102.75 145 102.5 C 145.25 102.25 145.5 102.25 146 102 C 146.25 101.75 146.5 101.5 146.75 101.5 C 146.75 101.5 147 101.5 147.25 101.75 C 147.5 102 147.5 102 147.75 102 C 148.25 102.25 148.75 102.5 149 102.75 C 149.5 103 150 103 150.5 103.25 C 150.75 103.25 150.75 103.25 151 103.25 C 151.25 103.25 151.25 103.25 151.5 103.25 C 151.25 102.75 150.75 102.75 150.5 103 Z M 150.5 103 "/>
</g>
</svg>
